lib/healthicons/icons/solid/symbols/i_certificate_paper.svg

<svg fill="none" height="48" viewBox="0 0 48 48" width="48" xmlns="http://www.w3.org/2000/svg"><g fill="#333"><path clip-rule="evenodd" d="m10 7v30c0 1.6569 1.3431 3 3 3h13v-3.5351c-1.1956-.6916-2-1.9843-2-3.4649 0-2.2091 1.7909-4 4-4s4 1.7909 4 4c0 1.4806-.8044 2.7733-2 3.4649v3.5351h5c1.6569 0 3-1.3431 3-3v-30c0-1.65685-1.3431-3-3-3h-22c-1.6569 0-3 1.34315-3 3zm18 28c1.1046 0 2-.8954 2-2s-.8954-2-2-2-2 .8954-2 2 .8954 2 2 2zm-10-24c0-.5523.4477-1 1-1h10c.5523 0 1 .4477 1 1s-.4477 1-1 1h-10c-.5523 0-1-.4477-1-1zm-3 5c-.5523 0-1 .4477-1 1s.4477 1 1 1h18c.5523 0 1-.4477 1-1s-.4477-1-1-1zm-1 5c0-.5523.4477-1 1-1h18c.5523 0 1 .4477 1 1s-.4477 1-1 1h-18c-.5523 0-1-.4477-1-1zm1 3c-.5523 0-1 .4477-1 1s.4477 1 1 1h18c.5523 0 1-.4477 1-1s-.4477-1-1-1z" fill-rule="evenodd"/><path d="m26 44v-4h4v4l-2-1.5z"/></g></svg>

<svg width="48" height="48" viewBox="0 0 48 48" fill="none" xmlns="http://www.w3.org/2000/svg">
<path fill-rule="evenodd" clip-rule="evenodd" d="M10 7V37C10 38.6569 11.3431 40 13 40H26V36.4649C24.8044 35.7733 24 34.4806 24 33C24 30.7909 25.7909 29 28 29C30.2091 29 32 30.7909 32 33C32 34.4806 31.1956 35.7733 30 36.4649V40H35C36.6569 40 38 38.6569 38 37V7C38 5.34315 36.6569 4 35 4H13C11.3431 4 10 5.34315 10 7ZM28 35C29.1046 35 30 34.1046 30 33C30 31.8954 29.1046 31 28 31C26.8954 31 26 31.8954 26 33C26 34.1046 26.8954 35 28 35ZM18 11C18 10.4477 18.4477 10 19 10L29 10C29.5523 10 30 10.4477 30 11C30 11.5523 29.5523 12 29 12L19 12C18.4477 12 18 11.5523 18 11ZM15 16C14.4477 16 14 16.4477 14 17C14 17.5523 14.4477 18 15 18H33C33.5523 18 34 17.5523 34 17C34 16.4477 33.5523 16 33 16H15ZM14 21C14 20.4477 14.4477 20 15 20H33C33.5523 20 34 20.4477 34 21C34 21.5523 33.5523 22 33 22H15C14.4477 22 14 21.5523 14 21ZM15 24C14.4477 24 14 24.4477 14 25C14 25.5523 14.4477 26 15 26H33C33.5523 26 34 25.5523 34 25C34 24.4477 33.5523 24 33 24H15Z" fill="#333333"/>
<path d="M26 44V40H30V44L28 42.5L26 44Z" fill="#333333"/>
</svg>
